X: 1931
T: Tiger Nixon's Waltz No 2
B: australian traditional tunes wiki
M:3/4
L:1/8
R: Waltz
Q: 1/4=100
K:D
V:1 
A||"D"f4-fd|e2d3F|[A,6A6]-|[A,2A2]zF DF|[A,4A4]-[A,A]A|"A"B2A3B|c6-|c2A2A2|
g4(3efg -|g2f2e2|B6-|B4A2|"A"B2-BA BA|c4-cB|"D"A4-AF|"A7"A2Bc BA|
"D"f4-fd|e2d3F|[A,6A6]-|[A,4A4]-[A2F2]|"D"D3F Ad|f2g2a2|"G"[G6g6]-|[G4g4]f2|
"G"g4-g>g|g2f2e2|"D"a2-aa aa|a2g2f2|"G"e2B3=c|"A"c2d2e2|"D"[D6-d6]|[D4F4A4d4]||
% abcbook-tune_id 6342d5bef2f818f1bde01504


% abcbook-boost 0
% abcbook-tablature 
% abcbook-transpose 
% abcbook-lastupdated 1665324488650
% abcbook-soundfonts 
% abcbook-repeats 1
% NFF Book 2018

